X: 582
M: C|
L: 1/8
K: Am
V: 1
|:\
EA-AB c2ce | dcBA GABG |\
|:\
age(a g)eae | gedg BGdB |
agea geae | gdgB A/A/A A2 |\
agea geae | gedg BGdB |\
cAdB ecae | gegB A/A/A A2 |]
V: 2 clef=bass middle=d
|:\
a2a2 a2a2 | g2g2 g2g2 |\
a2a2 a2a2 | e2e2 A2A2 :|\
|:\
a2a2 a2a2 | g2g2 g2g2 |
a2a2 a2a2 | e2e2 A2A2 |\
a2a2 a2a2 | g2g2 g2g2 |
a2a2 a2a2 | e2e2 A2A2 :|

